X:26
T:Sally Lost Her Slipper
M:2/4
L:1/16
Z: Jason R. Fruit <jasonfruit@gmail.com>
B: Bill Driver, 1948
K:A
cB | Ace!1!g !2!agab | c'2a2 e2c2 | d2f2 b2g2 | abaf edcB |
Ace!1!g !2!agab | c'2a2 e2c2 | d2f2 b2g2 | abag a2 :|
|:cd | efed [e2c2][e2c2] | ABAF [B2E2][B2E2] | [B2G2]Bc BGEF | G2B2 [e2c2][e2e2] |
[e4e4] [e3c3][eB] | [ec]BAF [B2E2][B2E2] | [B2G2]Bc B2G2 | [A2A2][AA][AA] [A2] :|

